X:1
T:Title
%%score { ( 1 3 ) | ( 2 4 ) }
L:1/8
M:3/4
K:F
V:1 treble nm="Grand Piano"
V:3 treble 
V:2 bass 
V:4 bass 
V:1
 z2 z2[Q:1/4=84] F>G | A3 c [CGB][CFA] | A2 z2 z2 | [DFG]3 [Fd] [Ec][EB] |[M:2/4] [EB]2 A2 | %5
[M:1/4] z c |[M:3/4] f3 f ed | c2 F2 [CFA]2 | [_EFc]2 [DFB][C=EA] [B,DG][A,CF] |[M:2/4] F2 E2 | %10
[M:1/4] z G |[M:3/4] G>A B3 z/ F/ | F>G A3 F | EF [CFA]2 E->[EG] |[M:5/8] F-F- F3 |[M:1/4] z A | %16
[M:3/4] [Fd]2 [FA][Af] [Ge][Fd] | d>^c cc cc | d3 A GF |[M:2/4] [DEA]>[DEA] [^CEA]2 |[M:1/4] z d | %21
[M:3/4] =B2 Gd cB | d>[Ec] [Ec][Ec] [Gc][_Ad] | e3 G ed |[M:2/4] [Ec]3/2[Ge]/4d/4 [CEc]2 | %25
[M:1/4] [A,F]>[B,FG] |[M:3/4] [CFA]3 [CFc] [CGB][CFA] | A2 z2 z2 | [DFG]3 [Fd] [Ec][EB] | %29
[M:2/4] [EB]2 A2 |[M:1/4] z c |[M:3/4] f3 f ed | c2 F2 [CFA]2 | [_EFc]2 [DFB][C=EA] [B,DG][A,CF] | %34
[M:2/4] F2 E2 |[M:1/4] z G |[M:3/4] G>A B3 z/ F/ | F>G A3 F | EF [CFA]2 E->[EG] | %39
[M:13/8] F-F- F3 z z z z z z z2 |] %40
V:2
 z2 z2 [F,A,]>[F,B,F] | [F,CF]3 [A,CF][K:bass] E,F, | z2 G2 D,2 | B,,3 [B,,B,] [C,G,][C,C] | %4
[M:2/4] z2[K:treble] F2 |[M:1/4] z [A,F] |[M:3/4] [DF]3 [DF] [CF][B,F] | [A,F]2[K:bass] A,2 F,2 | %8
 B,,2 B,,B,, B,,B,, |[M:2/4] [C,A,C]2 [C,G,C]2 |[M:1/4] z [B,D] | %11
[M:3/4][K:treble] [B,D]>[A,D^F] [G,DG]3 z/ [B,D]/ | [A,C]>[K:bass][G,CE] [F,CF]3 [A,C] | %13
 [G,B,C][F,A,C] C,2 z z/ B,/ |[M:5/8] B,2 z z2 |[M:1/4] z A, | %16
[M:3/4] [D,A,]2 [D,A,][D,A,] [D,A,][D,A,] | [G,B,E]>[G,B,E] [G,B,E][G,B,E] [G,B,E][G,B,E] | %18
 [F,A,D]3 [F,A,D] [E,A,^C][D,A,D] |[M:2/4] A,,>A,, A,,2 |[M:1/4] z [D,D] | %21
[M:3/4][K:treble] [G,DF]2 [G,=B,F][G,B,F] [G,CE][G,DF] | %22
 [G,=B,F]>[K:bass][C,C] [C,C][C,C] [E,C][F,C] | [G,CG]3 [G,CE][K:bass] [G,,=B,G][G,,B,F] | %24
[M:2/4] [C,C]3/2 z/4 F/4 C,2 |[M:1/4] F,>F, |[M:3/4] F,3 A, E,F, | z2 G2 D,2 | %28
 B,,3 [B,,B,] [C,G,][C,C] |[M:2/4] z2[K:treble] F2 |[M:1/4] z [A,F] |[M:3/4] [DF]3 [DF] [CF][B,F] | %32
 [A,F]2[K:bass] A,2 F,2 | B,,2 B,,B,, B,,B,, |[M:2/4] [C,A,C]2 [C,G,C]2 |[M:1/4] z [B,D] | %36
[M:3/4][K:treble] [B,D]>[A,D^F] [G,DG]3 z/ [B,D]/ | [A,C]>[K:bass][G,CE] [F,CF]3 [A,C] | %38
 [G,B,C][F,A,C] C,2 z z/ B,/ |[M:13/8] .B,3 z z z z z z z z z2 |] %40
V:3
 x6 | x6 | [B,E]4 [A,F]2 | x6 |[M:2/4] x4 |[M:1/4] x2 |[M:3/4] x6 | x6 | x6 |[M:2/4] x4 | %10
[M:1/4] x2 |[M:3/4] x6 | x6 | z2 z2 [CA]2 |[M:5/8] z2 A,3 |[M:1/4] x2 |[M:3/4] x6 | x6 | x6 | %19
[M:2/4] x4 |[M:1/4] x2 |[M:3/4] x6 | x6 | x6 |[M:2/4] x4 |[M:1/4] x2 |[M:3/4] x6 | [B,E]4 [A,F]2 | %28
 x6 |[M:2/4] x4 |[M:1/4] x2 |[M:3/4] x6 | x6 | x6 |[M:2/4] x4 |[M:1/4] x2 |[M:3/4] x6 | x6 | %38
 z2 z2 [CA]2 |[M:13/8] z2 A,3 z z z z z z z2 |] %40
V:4
 x6 | x4[K:bass] x2 | C,4 z2 | x6 |[M:2/4] [F,C]4[K:treble] |[M:1/4] x2 |[M:3/4] x6 | %7
 x2[K:bass] x4 | x6 |[M:2/4] x4 |[M:1/4] x2 |[M:3/4][K:treble] x6 | x3/2[K:bass] x9/2 | z2 z2 C,2 | %14
[M:5/8] F,-F,- F,3 |[M:1/4] x2 |[M:3/4] x6 | x6 | x6 |[M:2/4] x4 |[M:1/4] x2 | %21
[M:3/4][K:treble] x6 | x3/2[K:bass] x9/2 | x4[K:bass] x2 |[M:2/4] z z/ [C,C]/ z2 |[M:1/4] x2 | %26
[M:3/4] x6 | C,4 z2 | x6 |[M:2/4] [F,C]4[K:treble] |[M:1/4] x2 |[M:3/4] x6 | x2[K:bass] x4 | x6 | %34
[M:2/4] x4 |[M:1/4] x2 |[M:3/4][K:treble] x6 | x3/2[K:bass] x9/2 | z2 z2 C,2 | %39
[M:13/8] F,-F,- F,3 z z z z z z z2 |] %40

